X:163
M:C
L:1/8
K:Bb
=efga b2 ag|af=eg c2 (f=e)|f2 F4::cB|ABcd e2 dc|gecf {B}A2 d^f|
"tr"g3 a bg^fa|"tr"d2 ga b2 ag|"tr"f2 ed gecf|dBGc {B}A2 ga|bfce|G2 BA|B2 B,4:|

